src/static/logos/google-2014.svg

<?xml version="1.0" encoding="UTF-8" standalone="no"?>
<svg width="512px" height="178px" viewBox="0 0 512 178" version="1.1" xmlns="http://www.w3.org/2000/svg" xmlns:xlink="http://www.w3.org/1999/xlink" preserveAspectRatio="xMidYMid">
	<g>
		<path d="M119.501928,123.474092 L94.6973783,129.19916 C84.6326152,130.760765 75.6178967,132.146139 66.0818273,132.146139 C18.2056683,132.146139 0,96.9366015 0,69.3539615 C0,35.7084767 25.8423562,4.49596235 70.073955,4.49596235 C79.4411359,4.49596235 88.4558545,5.87888822 96.6041027,8.13317975 C109.615844,11.7777401 115.686032,16.2863233 119.501928,18.888182 L105.102366,32.5926101 L99.0346254,33.9755359 L103.369425,27.0315348 C97.4754683,21.3138095 86.7155708,10.7350385 66.2531633,10.7350385 C38.8492023,10.7350385 18.2056683,31.5572515 18.2056683,61.9057431 C18.2056683,94.5060787 41.7961806,125.204585 79.6026813,125.204585 C90.7150413,125.204585 96.4278714,122.960084 101.631588,120.869786 L101.631588,92.9493692 L75.4465607,94.3347427 L89.3174295,86.8767336 L126.091019,86.8767336 L121.584884,91.2090855 C120.361055,92.2468918 120.194615,92.6042497 119.847048,93.9822802 C119.668369,95.5463327 119.501928,100.578715 119.501928,102.311655 L119.501928,123.474092" fill="#166DEE"></path>
		<path d="M289.846575,112.20753 C293.9978,106.683169 295.035607,99.7881213 295.035607,93.0521707 C295.035607,77.8718057 287.788096,48.891554 266.393131,48.891554 C260.699883,48.891554 255.006634,51.1385027 250.870094,54.7634818 C244.141488,60.7969548 242.927449,68.3895849 242.927449,75.8108791 C242.927449,92.8857301 251.381655,121.001959 272.260164,121.001959 C278.986323,121.001959 285.888715,117.726995 289.846575,112.20753 L289.846575,112.20753 L289.846575,112.20753 Z M268.287618,126.1812 C240.85918,126.1812 226.192823,104.79113 226.192823,85.4619883 C226.192823,62.8627767 244.653047,43.5434248 270.882133,43.5434248 C296.234958,43.5434248 312.110457,63.3816799 312.110457,84.260189 C312.110457,104.610004 296.416085,126.1812 268.287618,126.1812 L268.287618,126.1812 L268.287618,126.1812 Z" fill="#F7BF34"></path>
		<path d="M196.343653,112.20753 C200.487535,106.683169 201.522894,99.7881213 201.522894,93.0521707 C201.522894,77.8718057 194.275383,48.891554 172.882867,48.891554 C167.192065,48.891554 161.496369,51.1385027 157.354935,54.7634818 C150.626327,60.7969548 149.42208,68.3895849 149.42208,75.8108791 C149.42208,92.8857301 157.87139,121.001959 178.752346,121.001959 C185.480954,121.001959 192.383345,117.726995 196.343653,112.20753 L196.343653,112.20753 L196.343653,112.20753 Z M174.777353,126.1812 C147.346467,126.1812 132.680111,104.79113 132.680111,85.4619883 C132.680111,62.8627767 151.14523,43.5434248 177.36942,43.5434248 C202.724693,43.5434248 218.600193,63.3816799 218.600193,84.260189 C218.600193,104.610004 202.900925,126.1812 174.777353,126.1812 L174.777353,126.1812 L174.777353,126.1812 Z" fill="#D3402B"></path>
		<path d="M369.811509,96.114189 C373.784056,92.1318519 374.129175,86.6099391 374.129175,83.4965202 C374.129175,71.0550827 366.700538,51.7014636 352.362167,51.7014636 C347.865822,51.7014636 343.031701,53.9484122 340.258506,57.4069507 C337.323766,61.0392728 336.462191,65.6971628 336.462191,70.1959554 C336.462191,81.7684748 343.203037,100.950758 358.067654,100.950758 C362.382872,100.950758 367.040763,98.8824883 369.811509,96.114189 L369.811509,96.114189 L369.811509,96.114189 Z M364.798709,128.947051 C363.420679,128.770821 362.556656,128.770821 360.833506,128.770821 C359.276796,128.770821 349.938987,129.118388 342.681686,131.53912 C338.882923,132.922046 327.824412,137.06348 327.824412,149.33603 C327.824412,161.606131 339.751842,170.422589 358.23899,170.422589 C374.821862,170.422589 383.643216,162.460363 383.643216,151.761657 C383.643216,142.932961 377.940177,138.279966 364.798709,128.947051 L364.798709,128.947051 L364.798709,128.947051 Z M377.073706,52.2203668 C381.046252,55.5051217 389.336465,62.412408 389.336465,75.5489799 C389.336465,88.3330892 382.079164,94.3910388 374.821862,100.086735 C372.574914,102.328789 369.985293,104.754416 369.985293,108.560522 C369.985293,112.354389 372.574914,114.427554 374.474295,115.989159 L380.70358,120.818385 C388.303554,127.214111 395.21084,133.093382 395.21084,145.020812 C395.21084,161.261012 379.484648,177.674995 349.767651,177.674995 C324.708545,177.674995 312.617123,165.754909 312.617123,152.961009 C312.617123,146.736619 315.720751,137.937294 325.927478,131.879344 C336.631079,125.31473 351.153025,124.455603 358.926782,123.926908 C356.503602,120.818385 353.740198,117.538525 353.740198,112.183053 C353.740198,109.248313 354.609116,107.515372 355.47069,105.442208 C353.563966,105.615991 351.66948,105.787327 349.938987,105.787327 C331.625623,105.787327 321.254902,92.1318519 321.254902,78.6623988 C321.254902,70.7148585 324.889671,61.8935048 332.313413,55.5051217 C342.165231,47.3837978 353.911534,46.0008719 363.249343,46.0008719 L398.840715,46.0008719 L387.782203,52.2203668 L377.073706,52.2203668 L377.073706,52.2203668 Z" fill="#166DEE"></path>
		<path d="M431.898762,118.48332 C426.16635,117.96197 424.966998,116.924164 424.966998,110.158841 L424.966998,11.9857909 C424.998819,11.6088519 425.02819,11.2270174 425.067352,10.8672119 C425.760039,4.79702409 427.495428,3.75921777 432.872929,0.631112905 L408.065932,0.631112905 L395.05419,6.87753203 L408.315593,6.87753203 L408.315593,6.95585703 L408.305802,6.89711328 L408.305802,113.974738 C408.305802,117.440619 407.61801,117.96197 403.625883,123.160792 L434.326837,123.160792 L440.747039,119.349791 C437.797614,118.999776 434.848188,118.828441 431.898762,118.48332" fill="#009A57"></path>
		<path d="M486.285686,68.7420474 C489.555756,67.5353529 491.276459,66.5048895 491.276459,64.093948 C491.276459,57.2086904 483.527178,49.2782838 474.226084,49.2782838 C467.326141,49.2782838 454.414753,54.6215177 454.414753,73.2237063 C454.414753,76.153551 454.757425,79.2547317 454.936104,82.3559123 L486.285686,68.7420474 L486.285686,68.7420474 Z M496.798371,123.180373 C491.105122,125.76265 485.247881,126.450442 480.080878,126.450442 C474.573651,126.450442 465.960348,126.102875 457.168366,119.734073 C444.949666,111.118323 439.603984,96.3051061 439.603984,83.3863756 C439.603984,56.6897874 461.312249,43.5997209 479.047967,43.5997209 C485.247881,43.5997209 491.631368,45.1466398 496.798371,48.4240517 C505.404331,54.1001669 507.641489,61.5043275 508.845736,65.4670832 L468.373737,81.8370091 C468.373737,81.8370091 455.991422,86.7210492 456.069171,87.0066584 C461.332882,106.342965 475.286455,117.489573 490.588667,117.489573 C499.375754,117.489573 505.747003,114.393287 511.604244,111.46589 L502.474486,120.079192 C500.584896,121.112104 498.687962,122.321246 496.798371,123.180373 Z" fill="#D3402B"></path>
	</g>
</svg>

<svg width="512" height="178" xmlns="http://www.w3.org/2000/svg" preserveAspectRatio="xMidYMid"><path d="M119.502 123.474L94.697 129.2c-10.064 1.562-19.08 2.947-28.615 2.947C18.206 132.146 0 96.936 0 69.354 0 35.708 25.842 4.496 70.074 4.496c9.367 0 18.382 1.383 26.53 3.637 13.012 3.645 19.082 8.153 22.898 10.755l-14.4 13.705-6.067 1.383 4.334-6.944c-5.894-5.718-16.653-16.297-37.116-16.297-27.404 0-48.047 20.822-48.047 51.17 0 32.601 23.59 63.3 61.397 63.3 11.112 0 16.825-2.245 22.029-4.335V92.95l-26.185 1.385 13.87-7.458h36.774l-4.506 4.332c-1.224 1.038-1.39 1.395-1.738 2.773-.179 1.564-.345 6.597-.345 8.33v21.162" fill="#166DEE"/><path d="M289.847 112.208c4.15-5.525 5.189-12.42 5.189-19.156 0-15.18-7.248-44.16-28.643-44.16-5.693 0-11.386 2.247-15.523 5.871-6.729 6.034-7.943 13.627-7.943 21.048 0 17.075 8.455 45.191 29.333 45.191 6.726 0 13.629-3.275 17.587-8.794zm-21.56 13.973c-27.428 0-42.094-21.39-42.094-40.719 0-22.6 18.46-41.919 44.69-41.919 25.352 0 41.227 19.839 41.227 40.717 0 20.35-15.694 41.921-43.822 41.921z" fill="#F7BF34"/><path d="M196.344 112.208c4.144-5.525 5.179-12.42 5.179-19.156 0-15.18-7.248-44.16-28.64-44.16-5.69 0-11.387 2.247-15.528 5.871-6.729 6.034-7.933 13.627-7.933 21.048 0 17.075 8.45 45.191 29.33 45.191 6.729 0 13.631-3.275 17.592-8.794zm-21.567 13.973c-27.43 0-42.097-21.39-42.097-40.719 0-22.6 18.465-41.919 44.69-41.919 25.355 0 41.23 19.839 41.23 40.717 0 20.35-15.7 41.921-43.823 41.921z" fill="#D3402B"/><path d="M369.812 96.114c3.972-3.982 4.317-9.504 4.317-12.617 0-12.442-7.428-31.796-21.767-31.796-4.496 0-9.33 2.247-12.103 5.706-2.935 3.632-3.797 8.29-3.797 12.789 0 11.572 6.741 30.755 21.606 30.755 4.315 0 8.973-2.069 11.744-4.837zm-5.013 32.833c-1.378-.176-2.242-.176-3.965-.176-1.557 0-10.895.347-18.152 2.768-3.8 1.383-14.858 5.524-14.858 17.797 0 12.27 11.928 21.087 30.415 21.087 16.583 0 25.404-7.963 25.404-18.661 0-8.829-5.703-13.482-18.844-22.815zm12.275-76.727c3.972 3.285 12.262 10.192 12.262 23.329 0 12.784-7.257 18.842-14.514 24.538-2.247 2.242-4.837 4.667-4.837 8.474 0 3.793 2.59 5.867 4.49 7.428l6.229 4.83c7.6 6.395 14.507 12.274 14.507 24.202 0 16.24-15.726 32.654-45.443 32.654-25.06 0-37.15-11.92-37.15-24.714 0-6.224 3.103-15.024 13.31-21.082 10.703-6.564 25.225-7.423 32.999-7.952-2.423-3.109-5.187-6.388-5.187-11.744 0-2.935.87-4.668 1.73-6.74-1.906.173-3.8.344-5.531.344-18.313 0-28.684-13.655-28.684-27.125 0-7.947 3.635-16.768 11.058-23.157 9.852-8.121 21.599-9.504 30.936-9.504h35.592l-11.059 6.22h-10.708z" fill="#166DEE"/><path d="M431.899 118.483c-5.733-.521-6.932-1.559-6.932-8.324V11.986c.032-.377.061-.759.1-1.119.693-6.07 2.428-7.108 7.806-10.236h-24.807l-13.012 6.247h13.262v.078l-.01-.059v107.078c0 3.466-.688 3.987-4.68 9.186h30.7l6.421-3.811c-2.95-.35-5.899-.522-8.848-.867" fill="#009A57"/><path d="M486.286 68.742c3.27-1.207 4.99-2.237 4.99-4.648 0-6.885-7.749-14.816-17.05-14.816-6.9 0-19.811 5.344-19.811 23.946 0 2.93.342 6.03.521 9.132l31.35-13.614zm10.512 54.438c-5.693 2.583-11.55 3.27-16.717 3.27-5.507 0-14.12-.347-22.913-6.716-12.218-8.616-17.564-23.429-17.564-36.348 0-26.696 21.708-39.786 39.444-39.786 6.2 0 12.583 1.547 17.75 4.824 8.606 5.676 10.843 13.08 12.048 17.043l-40.472 16.37s-12.383 4.884-12.305 5.17c5.264 19.336 19.217 30.483 34.52 30.483 8.787 0 15.158-3.097 21.015-6.024l-9.13 8.613c-1.89 1.033-3.786 2.242-5.676 3.101z" fill="#D3402B"/></svg>
